packages/kaspersky-hexa-ui-icons/src/iconsSVGs/16/DeleteAccount.svg

<svg width="16" height="16" viewBox="0 0 16 16" fill="none" xmlns="http://www.w3.org/2000/svg">
<path fill-rule="evenodd" clip-rule="evenodd" d="M5.02328 4.06144C5.02328 2.42594 6.34911 1.1001 7.98462 1.1001C9.62012 1.1001 10.946 2.42594 10.946 4.06144C10.946 5.69694 9.62012 7.02278 7.98462 7.02278C6.34911 7.02278 5.02328 5.69694 5.02328 4.06144ZM7.98462 2.4001C7.06708 2.4001 6.32328 3.14391 6.32328 4.06144C6.32328 4.97897 7.06708 5.72278 7.98462 5.72278C8.90215 5.72278 9.64596 4.97897 9.64596 4.06144C9.64596 3.14391 8.90215 2.4001 7.98462 2.4001Z" fill="black"/>
<path d="M7.63775 8.13259H5.68369C3.66785 8.13259 2.03369 9.76675 2.03369 11.7826V12.8501C2.03369 13.9823 2.9515 14.9001 4.08369 14.9001H8.45843C8.20233 14.5203 8.03231 14.0776 7.97634 13.6001H4.08369C3.66948 13.6001 3.33369 13.2643 3.33369 12.8501V11.7826C3.33369 10.4847 4.38582 9.43259 5.68369 9.43259H7.26729C7.26359 9.38354 7.26171 9.33397 7.26171 9.28397C7.26171 8.85331 7.40132 8.45525 7.63775 8.13259Z" fill="black"/>
<path fill-rule="evenodd" clip-rule="evenodd" d="M10.3863 8.23376C10.3863 7.87477 10.6773 7.58376 11.0363 7.58376H12.8895C13.2485 7.58376 13.5395 7.87477 13.5395 8.23376V8.63397L14.7141 8.63398C15.0731 8.63398 15.3641 8.92499 15.3641 9.28398C15.3641 9.64296 15.0731 9.93398 14.7141 9.93398H14.6697V13.253C14.6697 14.1642 13.931 14.903 13.0197 14.903H10.9061C9.99486 14.903 9.25613 14.1642 9.25613 13.253V9.93398H9.21171C8.85273 9.93397 8.56171 9.64296 8.56171 9.28397C8.56171 8.92499 8.85273 8.63397 9.21171 8.63397H10.3863V8.23376ZM13.3697 9.93398H10.5561V13.253C10.5561 13.4463 10.7128 13.603 10.9061 13.603H13.0197C13.213 13.603 13.3697 13.4463 13.3697 13.253V9.93398Z" fill="black"/>
</svg>

<svg xmlns="http://www.w3.org/2000/svg" width="16" height="16" fill="none" viewBox="0 0 16 16"><path fill="#000" fill-rule="evenodd" d="M5.0233 4.0613C5.0233 2.4258 6.349 1.1 7.9846 1.1s2.9614 1.3258 2.9614 2.9613-1.3259 2.9614-2.9614 2.9614-2.9613-1.3259-2.9613-2.9614M7.9846 2.4c-.9175 0-1.6613.7438-1.6613 1.6613s.7438 1.6614 1.6613 1.6614S9.646 4.9789 9.646 4.0613 8.9022 2.4 7.9847 2.4m3.0517 5.1836a.65.65 0 0 0-.65.65v.4003H9.2117a.65.65 0 0 0 0 1.3h.0444v3.3189c0 .9113.7387 1.65 1.65 1.65h2.1136c.9113 0 1.65-.7387 1.65-1.65v-3.319h.0444a.65.65 0 1 0 0-1.3h-1.1746v-.4002a.65.65 0 0 0-.65-.65zm-3.3986.5489h-1.954c-2.0158 0-3.65 1.6341-3.65 3.65V12.85c0 1.1322.9178 2.05 2.05 2.05h4.3747a2.93 2.93 0 0 1-.482-1.3H4.0836a.75.75 0 0 1-.75-.75v-1.0675c0-1.2979 1.0521-2.35 2.35-2.35h1.5836a2 2 0 0 1-.0056-.1486c0-.4307.1396-.8288.376-1.1514m2.9184 1.8014h2.8136v3.3189a.35.35 0 0 1-.35.35H10.906a.35.35 0 0 1-.35-.35z"/></svg>
